communes/244.svg

<?xml version="1.0" encoding="UTF-8" standalone="no"?>
<svg
   xmlns:dc="http://purl.org/dc/elements/1.1/"
   xmlns:cc="http://creativecommons.org/ns#"
   xmlns:rdf="http://www.w3.org/1999/02/22-rdf-syntax-ns#"
   xmlns:svg="http://www.w3.org/2000/svg"
   xmlns="http://www.w3.org/2000/svg"
   xmlns:sodipodi="http://sodipodi.sourceforge.net/DTD/sodipodi-0.dtd"
   xmlns:inkscape="http://www.inkscape.org/namespaces/inkscape"
   version="1.0"
   width="206.83481"
   height="242.27472"
   id="svg2780"
   sodipodi:docname="244.svg">
  <metadata
     id="metadata29">
    <rdf:RDF>
      <cc:Work
         rdf:about="">
        <dc:format>image/svg+xml</dc:format>
        <dc:type
           rdf:resource="http://purl.org/dc/dcmitype/StillImage" />
      </cc:Work>
    </rdf:RDF>
  </metadata>
  <sodipodi:namedview
     pagecolor="#ffffff"
     bordercolor="#666666"
     borderopacity="1"
     objecttolerance="10"
     gridtolerance="10"
     guidetolerance="10"
     inkscape:pageopacity="0"
     inkscape:pageshadow="2"
     inkscape:window-width="640"
     inkscape:window-height="480"
     id="namedview27" />
  <defs
     id="defs2782" />
  <g
     transform="translate(-21.14679,-816.26396)"
     id="layer1">
    <path
       d="M 22.14679,817.26396 L 25.871056,973.72194 C 28.531238,1085.4776 220.59715,1085.4776 223.25734,973.72194 L 226.9816,817.26396 L 22.14679,817.26396 z"
       id="path3282"
       style="fill:#296bc1;fill-opacity:1;fill-rule:evenodd;stroke:#000000;stroke-width:1.99999988;stroke-linecap:butt;stroke-miterlimit:4;stroke-dashoffset:0;stroke-opacity:1" />
    <path
       d="M 176.18179,100.02881 C 187.61558,94.973172 196.64669,83.909322 196.87972,54.518302 C 188.85949,72.264061 173.77446,84.481313 176.18179,100.02881 z"
       transform="translate(0,804.33069)"
       id="path2488"
       style="opacity:1;color:#000000;fill:#dad239;fill-opacity:1;fill-rule:evenodd;stroke:#000000;stroke-width:0.99921262;stroke-linecap:butt;stroke-linejoin:round;marker:none;marker-start:none;marker-mid:none;marker-end:none;stroke-miterlimit:4;stroke-dasharray:none;stroke-dashoffset:0;stroke-opacity:1;visibility:visible;display:inline;overflow:visible;enable-background:accumulate" />
    <path
       d="M 158.7257,101.0263 C 145.33543,100.85722 136.56632,83.178984 136.9056,70.86614 C 139.93602,79.034635 159.44882,88.582675 158.7257,101.0263 z"
       transform="translate(0,804.33069)"
       id="path2484"
       style="opacity:1;color:#000000;fill:#dad239;fill-opacity:1;fill-rule:evenodd;stroke:#000000;stroke-width:0.99921262;stroke-linecap:butt;stroke-linejoin:round;marker:none;marker-start:none;marker-mid:none;marker-end:none;stroke-miterlimit:4;stroke-dasharray:none;stroke-dashoffset:0;stroke-opacity:1;visibility:visible;display:inline;overflow:visible;enable-background:accumulate" />
    <path
       d="M 184.41109,98.906637 C 189.79305,98.32108 198.87517,88.341581 202.73998,73.844684 C 192.6123,76.031557 188.86822,88.971347 184.41109,98.906637 z"
       transform="translate(0,804.33069)"
       id="path2478"
       style="opacity:1;color:#000000;fill:#dad239;fill-opacity:1;fill-rule:evenodd;stroke:#000000;stroke-width:0.99921262;stroke-linecap:butt;stroke-linejoin:round;marker:none;marker-start:none;marker-mid:none;marker-end:none;stroke-miterlimit:4;stroke-dasharray:none;stroke-dashoffset:0;stroke-opacity:1;visibility:visible;display:inline;overflow:visible;enable-background:accumulate" />
    <path
       d="M 155.48386,72.473134 C 140.61421,58.782302 153.13562,42.063023 152.99013,32.822879 C 156.95996,38.691787 169.50056,49.539376 155.48386,72.473134 z"
       transform="translate(0,804.33069)"
       id="path2502"
       style="opacity:1;color:#000000;fill:#dad239;fill-opacity:1;fill-rule:evenodd;stroke:#000000;stroke-width:0.99921262;stroke-linecap:butt;stroke-linejoin:round;marker:none;marker-start:none;marker-mid:none;marker-end:none;stroke-miterlimit:4;stroke-dasharray:none;stroke-dashoffset:0;stroke-opacity:1;visibility:visible;display:inline;overflow:visible;enable-background:accumulate" />
    <path
       d="M 179.29895,77.335901 C 179.98287,81.823304 181.34755,85.516494 180.17175,92.173575 C 182.09719,87.241268 184.21312,82.499449 187.77762,79.206196 C 188.49808,81.330447 187.79302,84.155678 189.02449,85.814572 C 190.82418,82.54349 192.75014,79.777511 194.88189,77.834646 C 192.54554,98.716428 185.91916,100.24809 170.32153,110.37778 C 175.50353,105.18997 169.58239,88.207607 179.29895,77.335901 z"
       transform="translate(0,804.33069)"
       id="path2476"
       style="fill:#dad239;fill-opacity:1;fill-rule:evenodd;stroke:#000000;stroke-width:0.99921262;stroke-linecap:butt;stroke-linejoin:round;stroke-miterlimit:4;stroke-dasharray:none;stroke-opacity:1" />
    <path
       d="M 164.33659,86.438003 C 162.31718,69.952932 161.56014,66.97607 159.9442,66.373603 C 158.47662,65.826449 158.14397,62.149138 156.35667,61.001991 C 154.47199,62.691657 153.66958,65.463592 154.11231,69.480662 C 146.02705,63.938398 143.96203,56.962743 142.76585,49.780221 C 138.82401,60.615914 137.65143,84.84585 164.33659,86.438003 z"
       transform="translate(0,804.33069)"
       id="path2492"
       style="opacity:1;color:#000000;fill:#dad239;fill-opacity:1;fill-rule:evenodd;stroke:#000000;stroke-width:0.99921262;stroke-linecap:butt;stroke-linejoin:round;marker:none;marker-start:none;marker-mid:none;marker-end:none;stroke-miterlimit:4;stroke-dasharray:none;stroke-dashoffset:0;stroke-opacity:1;visibility:visible;display:inline;overflow:visible;enable-background:accumulate" />
    <path
       d="M 161.71818,84.567708 C 159.44882,80.556432 159.44882,74.58876 147.62862,70.86614 C 148.23228,82.215352 156.30161,84.166005 161.71818,84.567708 z"
       transform="translate(0,804.33069)"
       id="path2490"
       style="opacity:1;color:#000000;fill:#dad239;fill-opacity:1;fill-rule:evenodd;stroke:#000000;stroke-width:0.99921262;stroke-linecap:butt;stroke-linejoin:round;marker:none;marker-start:none;marker-mid:none;marker-end:none;stroke-miterlimit:4;stroke-dasharray:none;stroke-dashoffset:0;stroke-opacity:1;visibility:visible;display:inline;overflow:visible;enable-background:accumulate" />
    <path
       d="M 156.60604,65.11664 L 161.96755,46.164317 C 157.74167,47.42743 144.49577,58.044719 156.60604,65.11664 z"
       transform="translate(0,804.33069)"
       id="path2500"
       style="opacity:1;color:#000000;fill:#dad239;fill-opacity:1;fill-rule:evenodd;stroke:#000000;stroke-width:0.99921262;stroke-linecap:butt;stroke-linejoin:round;marker:none;marker-start:none;marker-mid:none;marker-end:none;stroke-miterlimit:4;stroke-dasharray:none;stroke-dashoffset:0;stroke-opacity:1;visibility:visible;display:inline;overflow:visible;enable-background:accumulate" />
    <path
       d="M 164.58596,72.59782 C 143.20531,55.879411 169.50315,41.760712 166.955,25.217012 C 178.28079,32.598156 187.02304,57.014881 164.58596,72.59782 z"
       transform="translate(0,804.33069)"
       id="path2504"
       style="opacity:1;color:#000000;fill:#dad239;fill-opacity:1;fill-rule:evenodd;stroke:#000000;stroke-width:0.99921262;stroke-linecap:butt;stroke-linejoin:round;marker:none;marker-start:none;marker-mid:none;marker-end:none;stroke-miterlimit:4;stroke-dasharray:none;stroke-dashoffset:0;stroke-opacity:1;visibility:visible;display:inline;overflow:visible;enable-background:accumulate" />
    <path
       d="M 165.58345,74.592802 C 172.26435,68.384484 176.26176,60.27175 172.69057,46.787749 C 171.22346,51.456451 169.85306,57.019291 164.96002,59.879814 C 162.58619,58.209496 161.84624,54.00675 161.59349,51.15177 C 156.43846,60.897153 155.20192,69.475328 165.58345,74.592802 z"
       transform="translate(0,804.33069)"
       id="path2496"
       style="opacity:1;color:#000000;fill:#dad239;fill-opacity:1;fill-rule:evenodd;stroke:#000000;stroke-width:0.99921262;stroke-linecap:butt;stroke-linejoin:round;marker:none;marker-start:none;marker-mid:none;marker-end:none;stroke-miterlimit:4;stroke-dasharray:none;stroke-dashoffset:0;stroke-opacity:1;visibility:visible;display:inline;overflow:visible;enable-background:accumulate" />
    <path
       d="M 163.96253,75.714978 C 166.65769,69.752176 168.66639,62.844264 167.20438,54.642988 C 161.71341,60.851891 161.37219,68.847567 163.96253,75.714978 z"
       transform="translate(0,804.33069)"
       id="path2498"
       style="opacity:1;color:#000000;fill:#dad239;fill-opacity:1;fill-rule:evenodd;stroke:#000000;stroke-width:0.99921262;stroke-linecap:butt;stroke-linejoin:round;marker:none;marker-start:none;marker-mid:none;marker-end:none;stroke-miterlimit:4;stroke-dasharray:none;stroke-dashoffset:0;stroke-opacity:1;visibility:visible;display:inline;overflow:visible;enable-background:accumulate" />
    <path
       d="M 170.69559,108.3828 C 186.76852,69.120531 168.66895,71.312145 168.20187,60.627932 C 165.85677,64.44959 162.97855,71.063613 164.08722,78.208705 C 162.72916,76.170081 161.13808,74.597475 159.44882,73.221252 C 155.85995,85.485308 163.69964,98.703829 170.69559,108.3828 z"
       transform="translate(0,804.33069)"
       id="path2480"
       style="opacity:1;color:#000000;fill:#dad239;fill-opacity:1;fill-rule:evenodd;stroke:#000000;stroke-width:0.99921262;stroke-linecap:butt;stroke-linejoin:round;marker:none;marker-start:none;marker-mid:none;marker-end:none;stroke-miterlimit:4;stroke-dasharray:none;stroke-dashoffset:0;stroke-opacity:1;visibility:visible;display:inline;overflow:visible;enable-background:accumulate" />
    <path
       d="M 166.08219,109.75435 C 167.3187,79.866902 152.32877,85.202675 155.60855,74.468115 C 154.07413,76.390123 152.59759,78.485749 152.3667,84.318336 C 149.87297,83.351697 147.75331,80.003248 145.25958,78.084019 C 143.55035,95.159638 153.00162,103.07473 166.08219,109.75435 z"
       transform="translate(0,804.33069)"
       id="path2482"
       style="opacity:1;color:#000000;fill:#dad239;fill-opacity:1;fill-rule:evenodd;stroke:#000000;stroke-width:0.99921262;stroke-linecap:butt;stroke-linejoin:round;marker:none;marker-start:none;marker-mid:none;marker-end:none;stroke-miterlimit:4;stroke-dasharray:none;stroke-dashoffset:0;stroke-opacity:1;visibility:visible;display:inline;overflow:visible;enable-background:accumulate" />
    <path
       d="M 175.43367,78.832137 C 190.60933,69.739056 194.88189,52.09034 184.16172,34.809637 C 186.16296,58.331979 165.03474,53.149604 175.43367,78.832137 z"
       transform="translate(0,804.33069)"
       id="path2494"
       style="opacity:1;color:#000000;fill:#dad239;fill-opacity:1;fill-rule:evenodd;stroke:#000000;stroke-width:0.99921262;stroke-linecap:butt;stroke-linejoin:round;marker:none;marker-start:none;marker-mid:none;marker-end:none;stroke-miterlimit:4;stroke-dasharray:none;stroke-dashoffset:0;stroke-opacity:1;visibility:visible;display:inline;overflow:visible;enable-background:accumulate" />
    <path
       d="M 175.93242,95.191051 C 180.90183,93.055905 194.31901,76.518627 191.64289,64.368522 C 190.41816,65.67368 188.95946,68.567496 187.40356,70.86614 C 189.12919,63.636407 189.1659,61.731545 189.39854,58.383578 C 187.43442,63.308482 185.5901,68.313253 182.66548,72.59782 C 179.4118,68.322868 180.46359,64.90901 180.29644,61.251364 C 173.49051,70.937514 172.15691,86.496911 175.93242,95.191051 z"
       transform="translate(0,804.33069)"
       id="path2486"
       style="opacity:1;color:#000000;fill:#dad239;fill-opacity:1;fill-rule:evenodd;stroke:#000000;stroke-width:0.99921262;stroke-linecap:butt;stroke-linejoin:round;marker:none;marker-start:none;marker-mid:none;marker-end:none;stroke-miterlimit:4;stroke-dasharray:none;stroke-dashoffset:0;stroke-opacity:1;visibility:visible;display:inline;overflow:visible;enable-background:accumulate" />
    <path
       d="M 157.7496,102.23665 L 161.06449,222.41915 C 161.5232,224.69787 176.56628,225.46966 177.60618,222.72643 L 181.51305,102.60444 C 178.58151,102.67844 175.16904,104.30389 174.33916,107.18088 C 172.69309,103.90994 170.55795,101.28444 167.97388,99.42051 C 165.95341,101.56854 164.88868,104.73891 164.98141,107.82614 C 163.17334,104.80199 160.23493,103.68054 157.7496,102.23665 z"
       transform="translate(0,804.33069)"
       id="path2506"
       style="opacity:1;color:#000000;fill:#ffffff;fill-opacity:1;fill-rule:evenodd;stroke:#000000;stroke-width:1px;stroke-linecap:butt;stroke-linejoin:round;marker:none;marker-start:none;marker-mid:none;marker-end:none;stroke-miterlimit:4;stroke-dasharray:none;stroke-dashoffset:0;stroke-opacity:1;visibility:visible;display:inline;overflow:visible;enable-background:accumulate" />
    <path
       d="M 84.424163,827.77842 L 95.130783,827.77842 L 95.130783,954.59795 C 95.130783,958.39714 98.189343,961.4557 101.98854,961.4557 L 122.25,961.45569 C 125.53112,961.45569 128.18847,964.11207 128.1875,967.39319 L 128.17835,998.27953 C 132.72863,995.96654 134.12597,995.27506 132.08287,1000.02 L 126.09705,1013.9216 L 120.11122,1000.02 C 118.06813,995.27509 119.46547,995.96657 124.01575,998.27956 L 124.01575,974.59927 C 124.01575,972.52337 122.34163,970.84925 120.26575,970.84925 L 113.76575,970.84925 C 111.68987,970.84925 110.01704,972.52338 110.01716,974.59925 L 110.01856,998.27953 C 114.56884,995.96654 115.96618,995.27506 113.92308,1000.02 L 107.93726,1013.9216 L 101.95143,1000.02 C 99.90834,995.27509 101.30568,995.96657 105.85596,998.27956 L 105.85737,974.59927 C 105.85749,972.52337 104.18465,970.84925 102.10877,970.84925 L 95.608771,970.84925 C 93.53289,970.84925 91.858771,972.52338 91.858771,974.59925 L 91.858771,998.27953 C 96.409049,995.96654 97.806397,995.27506 95.763296,1000.02 L 89.777471,1013.9216 L 83.791647,1000.02 C 81.748559,995.27509 83.145894,995.96657 87.696173,998.27956 L 87.696173,974.59928 C 87.696173,972.5234 86.022051,970.84928 83.946173,970.84928 L 77.446173,970.84928 C 75.370292,970.84928 73.697454,972.52341 73.697577,974.59927 L 73.698981,998.27953 C 78.249259,995.96654 79.646607,995.27506 77.603506,1000.02 L 71.617681,1013.9216 L 65.631857,1000.02 C 63.588769,995.27509 64.986104,995.96657 69.536383,998.27956 L 69.537787,974.59927 C 69.53791,972.52337 67.865068,970.84925 65.78919,970.84925 L 59.28919,970.84925 C 57.213309,970.84925 55.53919,972.52338 55.53919,974.59925 L 55.53919,998.27953 C 60.089468,995.96654 61.486816,995.27506 59.443715,1000.02 L 53.45789,1013.9216 L 47.472066,1000.02 C 45.428978,995.27509 46.826313,995.96657 51.376592,998.27956 L 51.375,967.39319 C 51.374831,964.11208 54.031379,961.45569 57.3125,961.45569 L 77.566406,961.4557 C 81.365603,961.4557 84.424163,958.39714 84.424163,954.59795 L 84.424163,827.77842 z"
       id="path2508"
       style="opacity:1;color:#000000;fill:#ffffff;fill-opacity:1;fill-rule:evenodd;stroke:#000000;stroke-width:1px;stroke-linecap:butt;stroke-linejoin:round;marker:none;marker-start:none;marker-mid:none;marker-end:none;stroke-miterlimit:4;stroke-dasharray:none;stroke-dashoffset:0;stroke-opacity:1;visibility:visible;display:inline;overflow:visible;enable-background:accumulate" />
    <path
       d="M 84.443395,926.46035 L 95.111548,926.46035"
       id="path3356"
       style="fill:none;fill-opacity:0.75;fill-rule:evenodd;stroke:#000000;stroke-width:1px;stroke-linecap:butt;stroke-linejoin:miter;stroke-opacity:1" />
    <path
       d="M 84.443395,935.18884 L 95.111548,935.18884"
       id="path3358"
       style="fill:none;fill-opacity:0.75;fill-rule:evenodd;stroke:#000000;stroke-width:1px;stroke-linecap:butt;stroke-linejoin:miter;stroke-opacity:1" />
    <path
       d="M 90.106219,135.88364 A 1.2343317,1.2343317 0 1 1 87.637555,135.88364 A 1.2343317,1.2343317 0 1 1 90.106219,135.88364 z"
       transform="matrix(1.2857143,0,0,1.2857143,-24.486385,765.7713)"
       id="path3360"
       style="opacity:1;color:#000000;fill:#000000;fill-opacity:0.75;fill-rule:evenodd;stroke:none;stroke-width:1pt;stroke-linecap:butt;stroke-linejoin:miter;marker:none;marker-start:none;marker-mid:none;marker-end:none;stroke-miterlimit:4;stroke-dasharray:none;stroke-dashoffset:0;stroke-opacity:1;visibility:visible;display:inline;overflow:visible;enable-background:accumulate" />
    <path
       d="M 90.106219,135.88364 A 1.2343317,1.2343317 0 1 1 87.637555,135.88364 A 1.2343317,1.2343317 0 1 1 90.106219,135.88364 z"
       transform="matrix(1.2857143,0,0,1.2857143,-24.486385,775.55779)"
       id="path3362"
       style="opacity:1;color:#000000;fill:#000000;fill-opacity:0.75;fill-rule:evenodd;stroke:none;stroke-width:1pt;stroke-linecap:butt;stroke-linejoin:miter;marker:none;marker-start:none;marker-mid:none;marker-end:none;stroke-miterlimit:4;stroke-dasharray:none;stroke-dashoffset:0;stroke-opacity:1;visibility:visible;display:inline;overflow:visible;enable-background:accumulate" />
  </g>
</svg>

<?xml version="1.0" encoding="UTF-8"?>
<svg version="1.0" viewBox="0 0 206.83 242.27" xmlns="http://www.w3.org/2000/svg" xmlns:cc="http://creativecommons.org/ns#" xmlns:dc="http://purl.org/dc/elements/1.1/" xmlns:rdf="http://www.w3.org/1999/02/22-rdf-syntax-ns#">
<metadata>
<rdf:RDF>
<cc:Work rdf:about="">
<dc:format>image/svg+xml</dc:format>
<dc:type rdf:resource="http://purl.org/dc/dcmitype/StillImage"/>
</cc:Work>
</rdf:RDF>
</metadata>
<g transform="translate(-21.147 -816.26)">
<path d="m22.147 817.26 3.7243 156.46c2.6602 111.76 194.73 111.76 197.39 0l3.7243-156.46h-204.83z" fill="#296bc1" fill-rule="evenodd" stroke="#000" stroke-width="2"/>
<path transform="translate(0 804.33)" d="m176.18 100.03c11.434-5.0556 20.465-16.119 20.698-45.511-8.0202 17.746-23.105 29.963-20.698 45.511z" color="#000000" fill="#dad239" fill-rule="evenodd" stroke="#000" stroke-linejoin="round" stroke-width=".99921"/>
<path transform="translate(0 804.33)" d="m158.73 101.03c-13.39-0.16908-22.159-17.847-21.82-30.16 3.0304 8.1685 22.543 17.717 21.82 30.16z" color="#000000" fill="#dad239" fill-rule="evenodd" stroke="#000" stroke-linejoin="round" stroke-width=".99921"/>
<path transform="translate(0 804.33)" d="m184.41 98.907c5.382-0.58556 14.464-10.565 18.329-25.062-10.128 2.1869-13.872 15.127-18.329 25.062z" color="#000000" fill="#dad239" fill-rule="evenodd" stroke="#000" stroke-linejoin="round" stroke-width=".99921"/>
<path transform="translate(0 804.33)" d="m155.48 72.473c-14.87-13.691-2.3482-30.41-2.4937-39.65 3.9698 5.8689 16.51 16.716 2.4937 39.65z" color="#000000" fill="#dad239" fill-rule="evenodd" stroke="#000" stroke-linejoin="round" stroke-width=".99921"/>
<path transform="translate(0 804.33)" d="m179.3 77.336c0.68392 4.4874 2.0486 8.1806 0.8728 14.838 1.9254-4.9323 4.0414-9.6741 7.6059-12.967 0.72046 2.1243 0.0154 4.9495 1.2469 6.6084 1.7997-3.2711 3.7256-6.0371 5.8574-7.9799-2.3364 20.882-8.9627 22.413-24.56 32.543 5.182-5.1878-0.73914-22.17 8.9774-33.042z" fill="#dad239" fill-rule="evenodd" stroke="#000" stroke-linejoin="round" stroke-width=".99921"/>
<path transform="translate(0 804.33)" d="m164.34 86.438c-2.0194-16.485-2.7764-19.462-4.3924-20.064-1.4676-0.54715-1.8002-4.2245-3.5875-5.3716-1.8847 1.6897-2.6871 4.4616-2.2444 8.4787-8.0853-5.5423-10.15-12.518-11.346-19.7-3.9418 10.836-5.1144 35.066 21.571 36.658z" color="#000000" fill="#dad239" fill-rule="evenodd" stroke="#000" stroke-linejoin="round" stroke-width=".99921"/>
<path transform="translate(0 804.33)" d="m161.72 84.568c-2.2694-4.0113-2.2694-9.9789-14.09-13.702 0.60366 11.349 8.673 13.3 14.09 13.702z" color="#000000" fill="#dad239" fill-rule="evenodd" stroke="#000" stroke-linejoin="round" stroke-width=".99921"/>
<path transform="translate(0 804.33)" d="m156.61 65.117 5.3615-18.952c-4.2259 1.2631-17.472 11.88-5.3615 18.952z" color="#000000" fill="#dad239" fill-rule="evenodd" stroke="#000" stroke-linejoin="round" stroke-width=".99921"/>
<path transform="translate(0 804.33)" d="m164.59 72.598c-21.381-16.718 4.9172-30.837 2.369-47.381 11.326 7.3811 20.068 31.798-2.369 47.381z" color="#000000" fill="#dad239" fill-rule="evenodd" stroke="#000" stroke-linejoin="round" stroke-width=".99921"/>
<path transform="translate(0 804.33)" d="m165.58 74.593c6.6809-6.2083 10.678-14.321 7.1071-27.805-1.4671 4.6687-2.8375 10.232-7.7306 13.092-2.3738-1.6703-3.1138-5.8731-3.3665-8.728-5.155 9.7454-6.3916 18.324 3.99 23.441z" color="#000000" fill="#dad239" fill-rule="evenodd" stroke="#000" stroke-linejoin="round" stroke-width=".99921"/>
<path transform="translate(0 804.33)" d="m163.96 75.715c2.6952-5.9628 4.7039-12.871 3.2418-21.072-5.491 6.2089-5.8322 14.205-3.2418 21.072z" color="#000000" fill="#dad239" fill-rule="evenodd" stroke="#000" stroke-linejoin="round" stroke-width=".99921"/>
<path transform="translate(0 804.33)" d="m170.7 108.38c16.073-39.262-2.0266-37.071-2.4937-47.755-2.3451 3.8217-5.2233 10.436-4.1146 17.581-1.3581-2.0386-2.9491-3.6112-4.6384-4.9875-3.5889 12.264 4.2508 25.483 11.247 35.162z" color="#000000" fill="#dad239" fill-rule="evenodd" stroke="#000" stroke-linejoin="round" stroke-width=".99921"/>
<path transform="translate(0 804.33)" d="m166.08 109.75c1.2365-29.887-13.753-24.552-10.474-35.286-1.5344 1.922-3.011 4.0176-3.2418 9.8502-2.4937-0.96664-4.6134-4.3151-7.1071-6.2343-1.7092 17.076 7.742 24.991 20.823 31.67z" color="#000000" fill="#dad239" fill-rule="evenodd" stroke="#000" stroke-linejoin="round" stroke-width=".99921"/>
<path transform="translate(0 804.33)" d="m175.43 78.832c15.176-9.0931 19.448-26.742 8.728-44.022 2.0012 23.522-19.127 18.34-8.728 44.022z" color="#000000" fill="#dad239" fill-rule="evenodd" stroke="#000" stroke-linejoin="round" stroke-width=".99921"/>
<path transform="translate(0 804.33)" d="m175.93 95.191c4.9694-2.1351 18.387-18.672 15.71-30.823-1.2247 1.3052-2.6834 4.199-4.2393 6.4976 1.7256-7.2297 1.7623-9.1346 1.995-12.483-1.9641 4.9249-3.8084 9.9297-6.7331 14.214-3.2537-4.275-2.2019-7.6888-2.369-11.346-6.8059 9.6862-8.1395 25.246-4.364 33.94z" color="#000000" fill="#dad239" fill-rule="evenodd" stroke="#000" stroke-linejoin="round" stroke-width=".99921"/>
<path transform="translate(0 804.33)" d="m157.75 102.24 3.3149 120.18c0.45871 2.2787 15.502 3.0505 16.542 0.30728l3.9069-120.12c-2.9315 0.074-6.344 1.6994-7.1739 4.5764-1.6461-3.2709-3.7812-5.8964-6.3653-7.7604-2.0205 2.148-3.0852 5.3184-2.9925 8.4056-1.8081-3.0242-4.7465-4.1456-7.2318-5.5895z" color="#000000" fill="#fff" fill-rule="evenodd" stroke="#000" stroke-linejoin="round" stroke-width="1px"/>
<path d="m84.424 827.78h10.707v126.82c0 3.7992 3.0586 6.8578 6.8578 6.8578l20.261-1e-5c3.2811 0 5.9385 2.6564 5.9375 5.9375l-0.00915 30.886c4.5503-2.313 5.9476-3.0045 3.9045 1.7405l-5.9858 13.902-5.9858-13.902c-2.0431-4.7449-0.64575-4.0534 3.9045-1.7404v-23.68c0-2.0759-1.6741-3.75-3.75-3.75h-6.5c-2.0759 0-3.7487 1.6741-3.7486 3.75l0.0014 23.68c4.5503-2.313 5.9476-3.0045 3.9045 1.7405l-5.9858 13.902-5.9858-13.902c-2.0431-4.7449-0.64575-4.0534 3.9045-1.7404l0.00141-23.68c1.2e-4 -2.0759-1.6727-3.75-3.7486-3.75h-6.5c-2.0759 0-3.75 1.6741-3.75 3.75v23.68c4.5503-2.313 5.9476-3.0045 3.9045 1.7405l-5.9858 13.902-5.9858-13.902c-2.0431-4.7449-0.64575-4.0534 3.9045-1.7404v-23.68c0-2.0759-1.6741-3.75-3.75-3.75h-6.5c-2.0759 0-3.7487 1.6741-3.7486 3.75l0.001404 23.68c4.5503-2.313 5.9476-3.0045 3.9045 1.7405l-5.9858 13.902-5.9858-13.902c-2.0431-4.7449-0.64575-4.0534 3.9045-1.7404l0.001404-23.68c1.23e-4 -2.0759-1.6727-3.75-3.7486-3.75h-6.5c-2.0759 0-3.75 1.6741-3.75 3.75v23.68c4.5503-2.313 5.9476-3.0045 3.9045 1.7405l-5.9858 13.902-5.9858-13.902c-2.0431-4.7449-0.64575-4.0534 3.9045-1.7404l-0.001592-30.886c-1.69e-4 -3.2811 2.6564-5.9375 5.9375-5.9375l20.254 1e-5c3.7992 0 6.8578-3.0586 6.8578-6.8578v-126.82z" color="#000000" fill="#fff" fill-rule="evenodd" stroke="#000" stroke-linejoin="round" stroke-width="1px"/>
<path d="m84.443 926.46h10.668" fill="none" stroke="#000" stroke-width="1px"/>
<path d="m84.443 935.19h10.668" fill="none" stroke="#000" stroke-width="1px"/>
<path transform="matrix(1.2857 0 0 1.2857 -24.486 765.77)" d="m90.106 135.88a1.2343 1.2343 0 1 1-2.4687 0 1.2343 1.2343 0 1 1 2.4687 0z" color="#000000" fill-opacity=".75" fill-rule="evenodd"/>
<path transform="matrix(1.2857 0 0 1.2857 -24.486 775.56)" d="m90.106 135.88a1.2343 1.2343 0 1 1-2.4687 0 1.2343 1.2343 0 1 1 2.4687 0z" color="#000000" fill-opacity=".75" fill-rule="evenodd"/>
</g>
</svg>
